X:1
T:Title
%%score { ( 1 3 ) | ( 2 4 ) }
L:1/8
M:6/8
K:G
V:1 treble nm="Grand Piano"
V:3 treble 
V:2 bass 
V:4 bass 
V:1
 z3 z2[Q:1/4=87] D | GGG GFG | A3 D2 D | [FA][FA][FA] [FA][DG][FA] | B3- B2 D | BBB BAG | %6
 [Ec]3 E2 E | DcB BBA |[M:5/8] [B,G]-[B,G]- [B,G]3 |[M:1/8] B |[M:3/4] dd dd cB | d3 c2 [FA] | %12
 [Fc][Fc] [Fc][Fc] [GB][FA] | B6 |[M:5/8] ddd dc |[M:1/8] B |[M:7/8] [EA][EA][EA] [Ec]3 [Ge] | %17
[M:3/4] [Gd][GB] [Gd][Fc] [GB][FA] |[M:5/8] G-G- G3 |] %19
V:2
 z3 z2 [G,B,] | [G,B,D][G,B,D][G,B,D] [G,B,D][A,CD][G,B,D] | [D,F,D]3 [D,F,]2 [D,F,] | %3
 [D,C][D,C][D,C] [D,C][D,B,][D,D] | [G,DG]3- [G,DG]2 [G,B,] | %5
 [G,DG][G,DG][G,DG] [G,DG][G,CF][G,B,=F] | [C,G,]3 [C,G,C]2 [C,G,C] | %7
 [D,G,B,][D,G,E][D,G,D] [D,F,D][D,F,D][D,F,C] |[M:5/8] [G,,G,]-[G,,G,]- [G,,G,]3 | %9
[M:1/8][K:treble] [G,DG] |[M:3/4] [G,B,G][G,B,G] [G,B,G][G,B,G] [G,EG][G,DG] | %11
 [B,DG]3 [A,DF]2[K:bass] [D,D] | [D,A,][D,A,] [D,A,][D,D] [D,D][D,D] | %13
 [G,DG]2 [G,D] [G,D]2 [G,A,G] |[M:5/8] [G,B,G][G,B,G][G,B,G] [G,G]-[G,DG] |[M:1/8] [G,DG] | %16
[M:7/8][K:bass] [C,C][C,C][C,C] [C,C]3 [C,C] |[M:3/4] [D,B,][D,D] [D,B,][D,A,] [D,D][D,C] | %18
[M:5/8] B,2 z z2 |] %19
V:3
 x6 | x6 | x6 | x6 | x6 | x6 | x6 | x6 |[M:5/8] x5 |[M:1/8] x |[M:3/4] x6 | x6 | x6 | z2 G G2 c | %14
[M:5/8] x5 |[M:1/8] x |[M:7/8] x7 |[M:3/4] x6 |[M:5/8] z2 E D2 |] %19
V:4
 x6 | x6 | x6 | x6 | x6 | x6 | x6 | x6 |[M:5/8] x5 |[M:1/8][K:treble] x |[M:3/4] x6 | %11
 x5[K:bass] x | x6 | x6 |[M:5/8] z z2 B, z |[M:1/8] x |[M:7/8][K:bass] x7 |[M:3/4] x6 | %18
[M:5/8] G,2- [G,-C] [G,B,]2 |] %19

